logos/hubspot.svg

<svg preserveAspectRatio="xMidYMid" viewBox="0 0 512 149" xmlns="http://www.w3.org/2000/svg">
  <path fill="#45535E" d="M.06 27.679h17.852v39.662h37.651V27.679h17.875v97.358H55.563V84.542H17.912v40.495H.06V27.679Z"/>
  <path fill="#45535E" d="M129.993 93.326c0 8.15-6.64 14.782-14.788 14.782-8.151 0-14.787-6.632-14.787-14.782V51.41h-16.93v41.916c0 17.487 14.229 31.711 31.717 31.711 17.484 0 31.712-14.224 31.712-31.711V51.41h-16.924v41.916"/>
  <path fill="#45535E" d="M194.179 51.901c-8.398 0-14.26 2.437-19.921 7.994V27.679h-16.985v59.705c0 22.348 16.158 37.653 34.311 37.653 20.181 0 37.863-15.578 37.863-36.567 0-20.723-16.305-36.569-35.268-36.569Zm.422 57.423c-11.509 0-20.31-9.612-20.31-20.854 0-11.244 8.801-20.859 20.31-20.859 9.752 0 18.558 9.615 18.558 20.859 0 11.242-8.806 20.854-18.558 20.854Z"/>
  <path fill="#45535E" d="M257.974 56.18c0-8.538 5.689-11.245 11.917-11.245 5.014 0 11.649 3.792 15.979 8.398l11.103-13.001c-5.549-7.448-16.788-12.596-25.998-12.596-18.421 0-31.694 10.7-31.694 28.444 0 32.91 40.497 22.478 40.497 40.902 0 5.682-5.551 10.698-11.913 10.698-10.026 0-13.278-4.876-17.881-10.024l-12.327 12.729c7.86 9.617 17.608 14.495 29.257 14.495 17.47 0 31.556-10.835 31.556-27.767 0-36.566-40.496-25.188-40.496-41.033"/>
  <path fill="#45535E" d="M343.184 50.947c-18.151 0-34.311 15.296-34.311 37.649v59.859h16.984v-32.369c5.662 5.553 11.521 7.994 19.922 7.994 18.962 0 35.269-15.844 35.269-36.567 0-20.992-17.687-36.566-37.864-36.566Zm3.018 57.425c-11.508 0-20.31-9.625-20.31-20.859 0-11.244 8.802-20.859 20.31-20.859 9.75 0 18.557 9.615 18.557 20.859 0 11.234-8.807 20.859-18.557 20.859Z"/>
  <path fill="#45535E" d="M506.069 109.324c-10.018 0-12.862-4.332-12.862-10.971V68.965h15.572V54.069h-15.572v-19.64l-17.195 7.718v59.863c0 15.306 10.56 23.027 25.045 23.027 2.167 0 5.15-.14 6.777-.541l4.199-15.438c-1.896.131-4.062.266-5.964.266"/>
  <path fill="#F8761F" d="M461.278 69.831c-3.256-5.602-7.836-10.093-13.562-13.474-4.279-2.491-8.716-4.072-13.716-4.751v-17.8c5-2.123 8.103-6.822 8.103-12.304 0-7.472-5.992-13.527-13.458-13.527-7.472 0-13.569 6.055-13.569 13.527 0 5.482 2.924 10.181 7.924 12.304v17.808c-4 .578-8.148 1.825-11.936 3.741-7.737-5.876-33.107-25.153-47.948-36.412.352-1.269.623-2.577.623-3.957 0-8.276-6.702-14.984-14.981-14.984S333.78 6.71 333.78 14.986c0 8.275 6.706 14.985 14.985 14.985 2.824 0 5.436-.826 7.69-2.184l3.132 2.376 43.036 31.008c-2.275 2.089-4.394 4.465-6.089 7.131C393.099 73.737 391 79.717 391 86.24v1.361c0 4.579.87 8.902 2.352 12.963 1.305 3.546 3.213 6.77 5.576 9.685l-14.283 14.318a11.501 11.501 0 0 0-12.166 2.668 11.499 11.499 0 0 0-3.388 8.19c.001 3.093 1.206 6 3.394 8.187a11.5 11.5 0 0 0 8.188 3.394 11.51 11.51 0 0 0 8.191-3.394 11.514 11.514 0 0 0 3.39-8.187c0-1.197-.185-2.365-.533-3.475l14.763-14.765c2.024 1.398 4.21 2.575 6.56 3.59 4.635 2.004 9.751 3.225 15.35 3.225h1.026c6.19 0 12.029-1.454 17.518-4.428 5.784-3.143 10.311-7.441 13.731-12.928 3.438-5.502 5.331-11.581 5.331-18.269v-.334c0-6.579-1.523-12.649-4.722-18.21Zm-18.038 30.973c-4.007 4.453-8.613 7.196-13.82 7.196h-.858c-2.974 0-5.883-.822-8.731-2.317-3.21-1.646-5.65-3.994-7.647-6.967-2.064-2.918-3.184-6.104-3.184-9.482v-1.026c0-3.321.637-6.47 2.243-9.444 1.717-3.251 4.036-5.779 7.12-7.789 3.028-1.996 6.262-2.975 9.864-2.975h.335c3.266 0 6.358.644 9.276 2.137 2.973 1.592 5.402 3.767 7.285 6.628 1.829 2.862 2.917 5.949 3.267 9.312.055.699.083 1.415.083 2.099 0 4.564-1.744 8.791-5.233 12.628Z"/>
</svg>

<?xml version="1.0" encoding="UTF-8" standalone="no"?>
<svg width="512px" height="149px" viewBox="0 0 512 149" version="1.1" xmlns="http://www.w3.org/2000/svg" xmlns:xlink="http://www.w3.org/1999/xlink" preserveAspectRatio="xMidYMid">
	<g>
		<path d="M0.06,27.679 L17.912,27.679 L17.912,67.341 L55.563,67.341 L55.563,27.679 L73.438,27.679 L73.438,125.037 L55.563,125.037 L55.563,84.542 L17.912,84.542 L17.912,125.037 L0.06,125.037 L0.06,27.679 L0.06,27.679 Z" fill="#45535E"></path>
		<path d="M129.993,93.326 C129.993,101.476 123.353,108.108 115.205,108.108 C107.054,108.108 100.418,101.476 100.418,93.326 L100.418,51.41 L83.488,51.41 L83.488,93.326 C83.488,110.813 97.717,125.037 115.205,125.037 C132.689,125.037 146.917,110.813 146.917,93.326 L146.917,51.41 L129.993,51.41 L129.993,93.326" fill="#45535E"></path>
		<path d="M194.179,51.901 C185.781,51.901 179.919,54.338 174.258,59.895 L174.258,27.679 L157.273,27.679 L157.273,87.384 C157.273,109.732 173.431,125.037 191.584,125.037 C211.765,125.037 229.447,109.459 229.447,88.47 C229.447,67.747 213.142,51.901 194.179,51.901 L194.179,51.901 Z M194.601,109.324 C183.092,109.324 174.291,99.712 174.291,88.47 C174.291,77.226 183.092,67.611 194.601,67.611 C204.353,67.611 213.159,77.226 213.159,88.47 C213.159,99.712 204.353,109.324 194.601,109.324 L194.601,109.324 Z" fill="#45535E"></path>
		<path d="M257.974,56.18 C257.974,47.642 263.663,44.935 269.891,44.935 C274.905,44.935 281.54,48.727 285.87,53.333 L296.973,40.332 C291.424,32.884 280.185,27.736 270.975,27.736 C252.554,27.736 239.281,38.436 239.281,56.18 C239.281,89.09 279.778,78.658 279.778,97.082 C279.778,102.764 274.227,107.78 267.865,107.78 C257.839,107.78 254.587,102.904 249.984,97.756 L237.657,110.485 C245.517,120.102 255.265,124.98 266.914,124.98 C284.384,124.98 298.47,114.145 298.47,97.213 C298.47,60.647 257.974,72.025 257.974,56.18" fill="#45535E"></path>
		<path d="M343.184,50.947 C325.033,50.947 308.873,66.243 308.873,88.596 L308.873,148.455 L325.857,148.455 L325.857,116.086 C331.519,121.639 337.378,124.08 345.779,124.08 C364.741,124.08 381.048,108.236 381.048,87.513 C381.048,66.521 363.361,50.947 343.184,50.947 L343.184,50.947 Z M346.202,108.372 C334.694,108.372 325.892,98.747 325.892,87.513 C325.892,76.269 334.694,66.654 346.202,66.654 C355.952,66.654 364.759,76.269 364.759,87.513 C364.759,98.747 355.952,108.372 346.202,108.372 L346.202,108.372 Z" fill="#45535E"></path>
		<path d="M506.069,109.324 C496.051,109.324 493.207,104.992 493.207,98.353 L493.207,68.965 L508.779,68.965 L508.779,54.069 L493.207,54.069 L493.207,34.429 L476.012,42.147 L476.012,102.01 C476.012,117.316 486.572,125.037 501.057,125.037 C503.224,125.037 506.207,124.897 507.834,124.496 L512.033,109.058 C510.137,109.189 507.971,109.324 506.069,109.324" fill="#45535E"></path>
		<path d="M461.278,69.831 C458.022,64.229 453.442,59.738 447.716,56.357 C443.437,53.866 439,52.285 434,51.606 L434,33.806 C439,31.683 442.103,26.984 442.103,21.502 C442.103,14.03 436.111,7.975 428.645,7.975 C421.173,7.975 415.076,14.03 415.076,21.502 C415.076,26.984 418,31.683 423,33.806 L423,51.614 C419,52.192 414.852,53.439 411.064,55.355 C403.327,49.479 377.957,30.202 363.116,18.943 C363.468,17.674 363.739,16.366 363.739,14.986 C363.739,6.71 357.037,0.002 348.758,0.002 C340.479,0.002 333.78,6.71 333.78,14.986 C333.78,23.261 340.486,29.971 348.765,29.971 C351.589,29.971 354.201,29.145 356.455,27.787 L359.587,30.163 L402.623,61.171 C400.348,63.26 398.229,65.636 396.534,68.302 C393.099,73.737 391,79.717 391,86.24 L391,87.601 C391,92.18 391.87,96.503 393.352,100.564 C394.657,104.11 396.565,107.334 398.928,110.249 L384.645,124.567 C383.378,124.1 382.047,123.844 380.658,123.844 C377.566,123.844 374.666,125.052 372.479,127.235 C370.29,129.424 369.091,132.331 369.091,135.425 C369.092,138.518 370.297,141.425 372.485,143.612 C374.672,145.8 377.579,147.006 380.673,147.006 C383.767,147.006 386.675,145.8 388.864,143.612 C391.048,141.425 392.254,138.517 392.254,135.425 C392.254,134.228 392.069,133.06 391.721,131.95 L406.484,117.185 C408.508,118.583 410.694,119.76 413.044,120.775 C417.679,122.779 422.795,124 428.394,124 L429.42,124 C435.61,124 441.449,122.546 446.938,119.572 C452.722,116.429 457.249,112.131 460.669,106.644 C464.107,101.142 466,95.063 466,88.375 L466,88.041 C466,81.462 464.477,75.392 461.278,69.831 L461.278,69.831 Z M443.24,100.804 C439.233,105.257 434.627,108 429.42,108 L428.562,108 C425.588,108 422.679,107.178 419.831,105.683 C416.621,104.037 414.181,101.689 412.184,98.716 C410.12,95.798 409,92.612 409,89.234 L409,88.208 C409,84.887 409.637,81.738 411.243,78.764 C412.96,75.513 415.279,72.985 418.363,70.975 C421.391,68.979 424.625,68 428.227,68 L428.562,68 C431.828,68 434.92,68.644 437.838,70.137 C440.811,71.729 443.24,73.904 445.123,76.765 C446.952,79.627 448.04,82.714 448.39,86.077 C448.445,86.776 448.473,87.492 448.473,88.176 C448.473,92.74 446.729,96.967 443.24,100.804 L443.24,100.804 Z" fill="#F8761F"></path>
	</g>
</svg>
